src/icons/android-happy.svg

<svg xmlns="http://www.w3.org/2000/svg" width="512" height="512" viewBox="0 0 512 512">
    <path d="M256 89.5c-88.8 0-160 72-160 160s71.2 160 160 160 160-72 160-160-72-160-160-160zm0 288c-70.4 0-128-57.6-128-128s57.6-128 128-128 128 57.6 128 128-57.6 128-128 128zm56-144c13.6 0 24-10.4 24-24s-10.4-24-24-24-24 10.4-24 24 10.4 24 24 24zm-112 0c13.6 0 24-10.4 24-24s-10.4-24-24-24-24 10.4-24 24 10.4 24 24 24zm56 104c37.6 0 68.8-23.2 81.6-56H174.4c12.8 32.8 44 56 81.6 56z"/>
</svg>

<?xml version="1.0" encoding="UTF-8"?>
<svg width="512px" height="512px" viewBox="0 0 512 512" version="1.1" xmlns="http://www.w3.org/2000/svg" xmlns:xlink="http://www.w3.org/1999/xlink">
    <!-- Generator: Sketch 62 (91390) - https://sketch.com -->
    <title>android-happy</title>
    <desc>Created with Sketch.</desc>
    <g id="android-happy" stroke="none" stroke-width="1" fill="none" fill-rule="evenodd">
        <path d="M256,89.5 C167.2,89.5 96,161.5 96,249.5 C96,337.5 167.2,409.5 256,409.5 C344.8,409.5 416,337.5 416,249.5 C416,161.5 344,89.5 256,89.5 Z M256,377.5 C185.6,377.5 128,319.9 128,249.5 C128,179.1 185.6,121.5 256,121.5 C326.4,121.5 384,179.1 384,249.5 C384,319.9 326.4,377.5 256,377.5 Z M312,233.5 C325.6,233.5 336,223.1 336,209.5 C336,195.9 325.6,185.5 312,185.5 C298.4,185.5 288,195.9 288,209.5 C288,223.1 298.4,233.5 312,233.5 Z M200,233.5 C213.6,233.5 224,223.1 224,209.5 C224,195.9 213.6,185.5 200,185.5 C186.4,185.5 176,195.9 176,209.5 C176,223.1 186.4,233.5 200,233.5 Z M256,337.5 C293.6,337.5 324.8,314.3 337.6,281.5 L174.4,281.5 C187.2,314.3 218.4,337.5 256,337.5 Z" id="Shape" fill="#000000" fill-rule="nonzero"></path>
    </g>
</svg>
